assets/images/content/Linaro-Logo_white-icon.svg

<svg viewBox="0 0 500 500" xmlns="http://www.w3.org/2000/svg"><g fill="#fff"><path d="m454.13 73.48h-128.7a20.88 20.88 0 0 0 -20.89 20.87v128.65a20.88 20.88 0 0 0 20.89 20.87h128.7a20.87 20.87 0 0 0 20.87-20.87v-128.65a20.86 20.86 0 0 0 -20.87-20.87z"/><path d="m186.6 73.22h-107.91a17.5 17.5 0 0 0 -17.51 17.49v107.91a17.51 17.51 0 0 0 17.51 17.5h107.91a17.5 17.5 0 0 0 17.5-17.5v-107.91a17.49 17.49 0 0 0 -17.5-17.49z"/><path d="m212.13 310.22h-88a14.28 14.28 0 0 0 -14.28 14.27v88a14.28 14.28 0 0 0 14.28 14.27h88a14.27 14.27 0 0 0 14.27-14.27v-88a14.27 14.27 0 0 0 -14.27-14.27z"/><path d="m279.7 73.41h-36.89a6 6 0 0 0 -6 6v36.89a6 6 0 0 0 6 6h36.89a6 6 0 0 0 6-6v-36.91a6 6 0 0 0 -6-5.98z"/><path d="m349.44 159h-152.05a24.67 24.67 0 0 0 -24.68 24.65v152.05a24.67 24.67 0 0 0 24.68 24.66h152.05a24.65 24.65 0 0 0 24.66-24.66v-152.06a24.65 24.65 0 0 0 -24.66-24.64z"/><path d="m86.83 109.43h-53.2a8.63 8.63 0 0 0 -8.63 8.63v53.2a8.63 8.63 0 0 0 8.63 8.63h53.2a8.63 8.63 0 0 0 8.63-8.63v-53.2a8.62 8.62 0 0 0 -8.63-8.63z"/></g></svg>

<svg id="Layer_1" data-name="Layer 1" xmlns="http://www.w3.org/2000/svg" viewBox="0 0 500 500"><defs><style>.cls-1{fill:#fff;}</style></defs><title>Linaro-Logo</title><path class="cls-1" d="M454.13,73.48H325.43a20.88,20.88,0,0,0-20.89,20.87V223a20.88,20.88,0,0,0,20.89,20.87h128.7A20.87,20.87,0,0,0,475,223V94.35A20.86,20.86,0,0,0,454.13,73.48Z"/><path class="cls-1" d="M186.6,73.22H78.69A17.5,17.5,0,0,0,61.18,90.71V198.62a17.51,17.51,0,0,0,17.51,17.5H186.6a17.5,17.5,0,0,0,17.5-17.5V90.71A17.49,17.49,0,0,0,186.6,73.22Z"/><path class="cls-1" d="M212.13,310.22h-88a14.28,14.28,0,0,0-14.28,14.27v88a14.28,14.28,0,0,0,14.28,14.27h88a14.27,14.27,0,0,0,14.27-14.27v-88A14.27,14.27,0,0,0,212.13,310.22Z"/><path class="cls-1" d="M279.7,73.41H242.81a6,6,0,0,0-6,6v36.89a6,6,0,0,0,6,6H279.7a6,6,0,0,0,6-6V79.39A6,6,0,0,0,279.7,73.41Z"/><path class="cls-1" d="M349.44,159H197.39a24.67,24.67,0,0,0-24.68,24.65V335.7a24.67,24.67,0,0,0,24.68,24.66H349.44A24.65,24.65,0,0,0,374.1,335.7V183.64A24.65,24.65,0,0,0,349.44,159Z"/><path class="cls-1" d="M86.83,109.43H33.63A8.63,8.63,0,0,0,25,118.06v53.2a8.63,8.63,0,0,0,8.63,8.63h53.2a8.63,8.63,0,0,0,8.63-8.63v-53.2A8.62,8.62,0,0,0,86.83,109.43Z"/></svg>
